assets/img/main/phone.svg

<svg width="16" height="16" viewBox="0 0 16 16" fill="none" xmlns="http://www.w3.org/2000/svg">
<path d="M12.7854 9.34543C12.4798 9.02867 12.1112 8.85932 11.7206 8.85932C11.3331 8.85932 10.9614 9.02554 10.6432 9.34229L9.64775 10.3302C9.56585 10.2863 9.48394 10.2455 9.40518 10.2047C9.29178 10.1483 9.18467 10.095 9.09331 10.0385C8.16084 9.44892 7.31343 8.68055 6.50067 7.68638C6.10689 7.19086 5.84227 6.77375 5.65011 6.35036C5.90843 6.11514 6.14784 5.87052 6.38096 5.6353C6.46917 5.54749 6.55737 5.45654 6.64558 5.36873C7.30713 4.71012 7.30713 3.85708 6.64558 3.19848L5.78557 2.34229C5.68791 2.24507 5.5871 2.14471 5.49259 2.04435C5.30358 1.84991 5.10512 1.64919 4.90035 1.46102C4.59478 1.15995 4.22935 1 3.84502 1C3.46069 1 3.08897 1.15995 2.77394 1.46102C2.77079 1.46416 2.77079 1.46416 2.76764 1.46729L1.69656 2.54301C1.29333 2.94444 1.06337 3.43369 1.01296 4.00134C0.937357 4.91711 1.20828 5.77016 1.41619 6.3284C1.92653 7.69892 2.68889 8.96909 3.82612 10.3302C5.20592 11.9704 6.8661 13.2657 8.76254 14.1783C9.48709 14.5202 10.4542 14.9247 11.5347 14.9937C11.6009 14.9969 11.6702 15 11.7332 15C12.4609 15 13.0721 14.7397 13.5509 14.2222C13.554 14.2159 13.5603 14.2128 13.5635 14.2065C13.7273 14.009 13.9163 13.8302 14.1148 13.6389C14.2502 13.5103 14.3889 13.3754 14.5243 13.2343C14.8362 12.9113 15 12.5349 15 12.1492C15 11.7603 14.833 11.3871 14.5149 11.0735L12.7854 9.34543ZM13.9132 12.6478C13.91 12.6478 13.91 12.651 13.9132 12.6478C13.7903 12.7796 13.6643 12.8987 13.5288 13.0305C13.3241 13.2249 13.1162 13.4288 12.9208 13.6577C12.6027 13.9964 12.2278 14.1564 11.7364 14.1564C11.6891 14.1564 11.6387 14.1564 11.5914 14.1532C10.6558 14.0936 9.78636 13.7298 9.13426 13.4194C7.35123 12.56 5.78557 11.3401 4.48452 9.79391C3.41029 8.50493 2.69204 7.31317 2.21635 6.0336C1.92338 5.25269 1.81627 4.64426 1.86353 4.07034C1.89503 3.7034 2.03679 3.39919 2.29826 3.13889L3.37249 2.06944C3.52685 1.92518 3.69066 1.84677 3.85132 1.84677C4.04979 1.84677 4.21045 1.96595 4.31126 2.06631C4.31441 2.06944 4.31756 2.07258 4.32071 2.07572C4.51287 2.25448 4.69559 2.43952 4.88775 2.6371C4.98541 2.73746 5.08621 2.83781 5.18702 2.94131L6.04704 3.79749C6.38096 4.12993 6.38096 4.43728 6.04704 4.76971C5.95568 4.86066 5.86747 4.95161 5.77612 5.03943C5.5115 5.30914 5.25948 5.56004 4.98541 5.80466C4.97911 5.81093 4.97281 5.81407 4.96966 5.82034C4.69874 6.09005 4.74914 6.35349 4.80584 6.53226C4.80899 6.54167 4.81214 6.55107 4.81529 6.56048C5.03896 7.09991 5.35398 7.60797 5.83282 8.21326L5.83597 8.2164C6.70543 9.28271 7.62215 10.1138 8.63338 10.7504C8.76254 10.832 8.89485 10.8978 9.02086 10.9606C9.13426 11.017 9.24137 11.0703 9.33273 11.1268C9.34533 11.1331 9.35793 11.1425 9.37053 11.1487C9.47764 11.2021 9.57845 11.2272 9.68241 11.2272C9.94388 11.2272 10.1077 11.0641 10.1612 11.0108L11.2386 9.93817C11.3457 9.83154 11.5158 9.70296 11.7143 9.70296C11.9096 9.70296 12.0703 9.82527 12.1679 9.9319C12.1711 9.93504 12.1711 9.93503 12.1742 9.93817L13.91 11.6662C14.2345 11.9861 14.2345 12.3154 13.9132 12.6478Z" fill="white" stroke="white" stroke-width="0.4"/>
</svg>

<svg width="16" height="16" fill="none" xmlns="http://www.w3.org/2000/svg"><path d="M12.785 9.345c-.305-.316-.674-.486-1.064-.486-.388 0-.76.167-1.078.483l-.995.988c-.082-.044-.164-.085-.243-.125a3.977 3.977 0 01-.312-.166c-.932-.59-1.78-1.358-2.592-2.353-.394-.495-.659-.912-.85-1.336.257-.235.497-.48.73-.715l.265-.266c.661-.659.661-1.512 0-2.17l-.86-.857a13.087 13.087 0 01-.293-.298 14.838 14.838 0 00-.593-.583C4.595 1.16 4.23 1 3.845 1c-.384 0-.756.16-1.071.461l-.006.006-1.071 1.076a2.29 2.29 0 00-.684 1.458c-.076.916.195 1.77.403 2.327.51 1.37 1.273 2.641 2.41 4.002a14.815 14.815 0 004.937 3.848c.724.342 1.691.747 2.772.816.066.003.135.006.198.006.728 0 1.34-.26 1.818-.778.003-.006.01-.01.012-.015.164-.198.353-.377.552-.568.135-.129.274-.264.41-.405.311-.323.475-.7.475-1.085 0-.389-.167-.762-.485-1.075l-1.73-1.729zm1.128 3.303c-.003 0-.003.003 0 0-.123.132-.249.25-.384.383a8.291 8.291 0 00-.608.627c-.318.338-.693.498-1.185.498-.047 0-.097 0-.145-.003-.935-.06-1.805-.423-2.457-.734a13.985 13.985 0 01-4.65-3.625c-1.074-1.29-1.792-2.48-2.268-3.76-.293-.781-.4-1.39-.352-1.964.031-.367.173-.67.434-.931l1.074-1.07c.155-.144.319-.222.48-.222.198 0 .358.119.46.22l.009.009c.192.178.375.364.567.561l.299.304.86.856c.334.333.334.64 0 .973-.091.09-.18.182-.27.27-.266.27-.518.52-.792.765-.006.006-.012.01-.015.015-.271.27-.22.533-.164.712.003.01.006.02.01.028.223.54.538 1.048 1.017 1.653l.003.003c.87 1.067 1.786 1.898 2.797 2.534.13.082.262.148.388.21.113.057.22.11.312.167l.038.022a.684.684 0 00.311.078.674.674 0 00.48-.216l1.077-1.073c.107-.106.277-.235.475-.235.196 0 .356.122.454.229l.006.006 1.736 1.728c.325.32.325.65.003.982z" fill="#fff" stroke="#fff" stroke-width=".4"/></svg>
